public/logo-pages.svg

<svg width="272" height="116" viewBox="0 0 272 116" fill="none" xmlns="http://www.w3.org/2000/svg">
<path d="M25.5 116V100.13H35.4972C36.5972 100.13 37.4708 99.8079 38.1179 99.1628C38.8296 98.5822 39.1855 97.7758 39.1855 96.7437V46.232H57.7241V100.518C57.7241 105.291 56.3329 109.065 53.5505 111.839C50.8328 114.613 46.9827 116 42.0003 116H25.5ZM48.5033 41.1035C45.7856 41.1035 43.4562 40.1358 41.515 38.2005C39.5738 36.2007 38.6032 33.8783 38.6032 31.2334C38.6032 28.5239 39.5738 26.2016 41.515 24.2663C43.4562 22.2664 45.7856 21.2665 48.5033 21.2665C51.221 21.2665 53.5505 22.2664 55.4917 24.2663C57.4329 26.2016 58.4035 28.5239 58.4035 31.2334C58.4035 33.8783 57.4329 36.2007 55.4917 38.2005C53.5505 40.1358 51.221 41.1035 48.5033 41.1035Z" fill="#78E08F"/>
<path d="M92.3989 97.6146C87.1576 97.6146 82.5634 96.6469 78.6163 94.7116C74.6692 92.7118 71.5956 90.0346 69.3956 86.6801C67.1955 83.261 66.0955 79.3904 66.0955 75.0682V46.232H84.6341V73.907C84.6341 75.0682 84.9252 76.1971 85.5076 77.2938C86.09 78.3905 86.9311 79.2936 88.0312 80.0032C89.1959 80.6483 90.5224 80.9709 92.0106 80.9709C93.4989 80.9709 94.7607 80.6483 95.796 80.0032C96.896 79.2936 97.7372 78.3905 98.3196 77.2938C98.9019 76.1971 99.1931 75.0682 99.1931 73.907V46.232H117.829V75.0682C117.829 79.3904 116.793 83.261 114.723 86.6801C112.717 90.0346 109.805 92.7118 105.987 94.7116C102.17 96.6469 97.6401 97.6146 92.3989 97.6146Z" fill="#78E08F"/>
<path d="M126.095 96.3566V83.1965H149.583C150.101 83.1965 150.522 83.0997 150.845 82.9062C151.169 82.6481 151.428 82.3579 151.622 82.0353C151.816 81.6482 151.913 81.2612 151.913 80.8741C151.913 80.4871 151.816 80.1323 151.622 79.8097C151.428 79.4226 151.169 79.1323 150.845 78.9388C150.522 78.7453 150.101 78.6485 149.583 78.6485H142.013C138.713 78.6485 135.704 78.1002 132.986 77.0035C130.268 75.8423 128.101 74.0683 126.483 71.6814C124.93 69.23 124.154 66.1012 124.154 62.2951C124.154 59.3276 124.865 56.6505 126.289 54.2636C127.777 51.8122 129.783 49.8769 132.307 48.4576C134.83 46.9739 137.613 46.232 140.654 46.232H166.181V59.3922H145.022C144.374 59.3922 143.824 59.6179 143.372 60.0695C142.983 60.5211 142.789 61.0372 142.789 61.6178C142.789 62.1984 142.983 62.7144 143.372 63.166C143.824 63.6176 144.374 63.8434 145.022 63.8434H152.01C155.763 63.8434 158.998 64.424 161.716 65.5852C164.498 66.6818 166.634 68.4236 168.122 70.8105C169.61 73.1974 170.354 76.2939 170.354 80.1C170.354 83.0675 169.578 85.7769 168.025 88.2283C166.537 90.6797 164.531 92.6473 162.007 94.131C159.484 95.6147 156.636 96.3566 153.466 96.3566H126.095Z" fill="#78E08F"/>
<path d="M195.768 96.3566C190.85 96.3566 187 94.9696 184.218 92.1957C181.436 89.4217 180.044 85.6479 180.044 80.8741V34.6202H198.68V79.1323C198.68 79.7774 198.906 80.3258 199.359 80.7774C199.812 81.1644 200.362 81.3579 201.009 81.3579H211.977V96.3566H195.768ZM172.474 60.3598V46.232H211.977V60.3598H172.474Z" fill="#78E08F"/>
<path d="M244.532 97.5178C239.485 97.5178 234.858 96.4211 230.652 94.2278C226.511 92.0344 223.179 88.9702 220.655 85.035C218.196 81.0354 216.967 76.4552 216.967 71.2943C216.967 66.1335 218.196 61.5855 220.655 57.6504C223.179 53.7153 226.543 50.651 230.749 48.4576C234.955 46.1998 239.582 45.0709 244.629 45.0709C249.676 45.0709 254.27 46.1998 258.412 48.4576C262.553 50.651 265.853 53.7153 268.312 57.6504C270.771 61.5855 272 66.1335 272 71.2943C272 76.4552 270.771 81.0354 268.312 85.035C265.853 88.9702 262.52 92.0344 258.315 94.2278C254.173 96.4211 249.579 97.5178 244.532 97.5178ZM244.532 80.8741C246.279 80.8741 247.832 80.4548 249.191 79.6162C250.55 78.7775 251.585 77.6486 252.297 76.2294C253.073 74.7456 253.462 73.0684 253.462 71.1976C253.462 69.3268 253.073 67.6817 252.297 66.2625C251.585 64.8433 250.55 63.7144 249.191 62.8757C247.832 62.0371 246.279 61.6178 244.532 61.6178C242.785 61.6178 241.232 62.0371 239.873 62.8757C238.514 63.7144 237.447 64.8433 236.67 66.2625C235.894 67.6817 235.505 69.3268 235.505 71.1976C235.505 73.0684 235.894 74.7456 236.67 76.2294C237.447 77.6486 238.514 78.7775 239.873 79.6162C241.232 80.4548 242.785 80.8741 244.532 80.8741Z" fill="#78E08F"/>
<path d="M51.6112 7.49181C51.0277 6.81972 50.0356 6.75862 49.3936 7.36961C49.2186 7.55291 31.8862 23.8664 21.1483 16.4734C16.8882 13.5406 15.8377 6.45312 15.8377 6.39202C15.7794 5.65883 15.2541 5.10894 14.5538 4.98674C13.9119 4.92564 13.2116 5.29224 12.9198 5.90323C10.177 12.2576 5.33326 20.3227 3.99103 19.4062C3.87431 19.4062 3.64088 19.1618 3.4658 18.7341C2.76551 16.7178 2.99894 14.5182 3.99103 12.6242C6.20863 7.85841 10.2937 4.43685 15.1958 3.15376C15.721 3.03156 16.1295 2.60387 16.3046 2.05398C16.4797 1.50409 16.3046 0.89309 15.9544 0.465395C15.5459 0.0988005 15.0207 -0.0844977 14.4955 0.0377011C8.65967 1.50408 3.81595 5.65883 1.18984 11.28C-0.210757 14.0294 -0.385832 17.3288 0.722972 20.2005C1.24819 21.6057 2.53207 22.5833 3.99103 22.5833H4.04938C6.90893 22.5222 10.4688 18.7952 12.9198 14.7626C13.2116 14.2738 13.7368 14.0294 14.2621 14.0905C14.7873 14.0905 15.2541 14.396 15.4876 14.8848C16.4797 16.5956 17.8219 18.062 19.4559 19.1007C32.178 27.9601 50.6775 10.4857 51.4945 9.75248C51.7863 9.44699 51.9614 9.01929 51.9614 8.6527C52.0197 8.225 51.8447 7.79731 51.6112 7.49181Z" fill="black"/>
<path d="M98.0419 6.33092C97.8085 6.02543 97.4 5.84213 96.9915 5.84213C96.583 5.84213 96.1745 5.96433 95.8827 6.26983C87.8293 14.2738 74.582 15.9846 65.0696 16.5956C64.7778 16.6567 64.6028 16.1679 64.7778 15.8624C65.5365 14.8237 66.0617 13.6017 66.2951 12.3187C66.762 9.01929 64.8945 5.84213 61.8016 4.92564C59.0587 3.76476 56.0825 5.53663 52.8144 10.058C52.581 10.3635 52.2892 10.2413 52.3475 9.87468C52.581 8.04171 52.8144 6.26982 53.0478 4.62014C53.1646 4.00915 52.9311 3.45926 52.5226 3.09266C52.0558 2.66497 51.4722 2.60387 50.947 2.84827C50.4217 3.03156 50.0716 3.58146 50.0132 4.13135C49.3713 9.01929 48.6126 14.0905 47.7956 18.9785C42.485 30.1596 36.7076 47.3896 39.4504 50.078C39.8589 50.5057 40.4425 50.7501 41.0261 50.7501C41.3179 50.7501 41.5513 50.7501 41.8431 50.6279C45.1695 49.4059 48.3792 34.3144 50.7719 19.8339C50.8302 19.7117 50.8302 19.6506 50.8886 19.5895C52.5226 15.8013 54.7986 12.3187 57.5414 9.32479C58.4168 8.4694 59.7007 7.49181 60.6928 7.91951C62.6769 8.7749 63.5523 10.058 63.2605 11.7688C62.5019 14.5793 60.1675 16.7178 57.3663 17.1455C57.0162 17.1455 56.666 17.2066 56.3159 17.2066C55.4989 17.3288 54.9153 18.062 54.9153 18.9174C55.032 19.7728 55.674 20.3838 56.491 20.3838C56.8995 20.3838 57.308 20.3838 57.7165 20.3227C58.8253 20.2005 60.1092 20.1394 61.5681 20.0783C71.4306 19.4673 88.0043 18.5508 97.9836 8.5916C98.3337 8.3472 98.4504 7.91951 98.5088 7.49181C98.5088 7.06412 98.3337 6.63642 98.0419 6.33092ZM41.8431 45.5567C42.6017 41.8907 43.5355 38.2858 44.761 34.8032C44.0607 38.4691 43.0686 42.0129 41.8431 45.5567Z" fill="black"/>
<path d="M144.033 6.33092C143.8 6.02543 143.391 5.84213 142.983 5.84213C142.574 5.84213 142.166 5.96433 141.874 6.26983C133.82 14.2738 120.573 15.9846 111.061 16.5956C110.769 16.6567 110.594 16.1679 110.769 15.8624C111.528 14.8237 112.053 13.6017 112.286 12.3187C112.753 9.01929 110.886 5.84213 107.793 4.92564C105.05 3.76476 102.074 5.53663 98.8056 10.058C98.5722 10.3635 98.2804 10.2413 98.3388 9.87468C98.5722 8.04171 98.8056 6.26982 99.039 4.62014C99.1558 4.00915 98.9223 3.45926 98.5138 3.09266C98.047 2.66497 97.4634 2.60387 96.9382 2.84827C96.4129 3.03156 96.0628 3.58146 96.0044 4.13135C95.3625 9.01929 94.6038 14.0905 93.7868 18.9785C88.4762 30.1596 82.6988 47.3896 85.4416 50.078C85.8501 50.5057 86.4337 50.7501 87.0173 50.7501C87.3091 50.7501 87.5425 50.7501 87.8343 50.6279C91.1607 49.4059 94.3704 34.3144 96.7631 19.8339C96.8214 19.7117 96.8214 19.6506 96.8798 19.5895C98.5138 15.8013 100.79 12.3187 103.533 9.32479C104.408 8.4694 105.692 7.49181 106.684 7.91951C108.668 8.7749 109.544 10.058 109.252 11.7688C108.493 14.5793 106.159 16.7178 103.358 17.1455C103.007 17.1455 102.657 17.2066 102.307 17.2066C101.49 17.3288 100.907 18.062 100.907 18.9174C101.023 19.7728 101.665 20.3838 102.482 20.3838C102.891 20.3838 103.299 20.3838 103.708 20.3227C104.816 20.2005 106.1 20.1394 107.559 20.0783C117.422 19.4673 133.996 18.5508 143.975 8.5916C144.325 8.3472 144.442 7.91951 144.5 7.49181C144.5 7.06412 144.325 6.63642 144.033 6.33092ZM87.8343 45.5567C88.5929 41.8907 89.5267 38.2858 90.7522 34.8032C90.0519 38.4691 89.0598 42.0129 87.8343 45.5567Z" fill="black"/>
</svg>

<svg width="272" height="116" fill="none" xmlns="http://www.w3.org/2000/svg"><path d="M25.5 116v-15.87h9.997c1.1 0 1.974-.322 2.62-.967.713-.58 1.069-1.387 1.069-2.42V46.233h18.538v54.286c0 4.773-1.391 8.547-4.173 11.321C50.832 114.613 46.983 116 42 116H25.5zm23.003-74.897c-2.717 0-5.047-.967-6.988-2.903-1.941-2-2.912-4.322-2.912-6.967 0-2.71.97-5.031 2.912-6.967 1.941-2 4.27-3 6.988-3 2.718 0 5.047 1 6.989 3 1.94 1.936 2.912 4.258 2.912 6.967 0 2.645-.971 4.968-2.912 6.967-1.941 1.936-4.271 2.903-6.989 2.903zM92.399 97.615c-5.241 0-9.836-.968-13.783-2.903-3.947-2-7.02-4.677-9.22-8.032-2.2-3.419-3.3-7.29-3.3-11.612V46.232h18.538v27.675c0 1.161.291 2.29.874 3.387.582 1.097 1.423 2 2.523 2.71 1.165.644 2.491.967 3.98.967 1.488 0 2.75-.323 3.785-.968 1.1-.71 1.941-1.612 2.524-2.71.582-1.096.873-2.225.873-3.386V46.232h18.636v28.836c0 4.322-1.036 8.193-3.106 11.612-2.006 3.355-4.918 6.032-8.736 8.032-3.817 1.935-8.347 2.903-13.588 2.903zM126.095 96.357v-13.16h23.488c.518 0 .939-.097 1.262-.29.324-.259.583-.55.777-.872.194-.387.291-.774.291-1.16 0-.388-.097-.743-.291-1.065-.194-.387-.453-.678-.777-.871-.323-.194-.744-.29-1.262-.29h-7.57c-3.3 0-6.309-.549-9.027-1.645-2.718-1.162-4.885-2.936-6.503-5.323-1.553-2.451-2.329-5.58-2.329-9.386 0-2.967.711-5.645 2.135-8.031 1.488-2.452 3.494-4.387 6.018-5.806 2.523-1.484 5.306-2.226 8.347-2.226h25.527v13.16h-21.159c-.648 0-1.198.226-1.65.677a2.305 2.305 0 00-.583 1.549c0 .58.194 1.096.583 1.548a2.247 2.247 0 001.65.677h6.988c3.753 0 6.988.581 9.706 1.742 2.782 1.097 4.918 2.839 6.406 5.226 1.488 2.386 2.232 5.483 2.232 9.289 0 2.968-.776 5.677-2.329 8.128-1.488 2.452-3.494 4.42-6.018 5.903-2.523 1.484-5.371 2.226-8.541 2.226h-27.371zM195.768 96.357c-4.918 0-8.768-1.387-11.55-4.161-2.782-2.774-4.174-6.548-4.174-11.322V34.62h18.636v44.512c0 .645.226 1.194.679 1.645.453.387 1.003.58 1.65.58h10.968v15h-16.209zM172.474 60.36V46.232h39.503V60.36h-39.503zM244.532 97.518c-5.047 0-9.674-1.097-13.88-3.29-4.141-2.194-7.473-5.258-9.997-9.193-2.459-4-3.688-8.58-3.688-13.74 0-5.162 1.229-9.71 3.688-13.645 2.524-3.935 5.888-6.999 10.094-9.192 4.206-2.258 8.833-3.387 13.88-3.387 5.047 0 9.641 1.129 13.783 3.387 4.141 2.193 7.441 5.257 9.9 9.192 2.459 3.936 3.688 8.483 3.688 13.644s-1.229 9.741-3.688 13.741c-2.459 3.935-5.792 7-9.997 9.193-4.142 2.193-8.736 3.29-13.783 3.29zm0-16.644c1.747 0 3.3-.42 4.659-1.258a8.262 8.262 0 003.106-3.387c.776-1.483 1.165-3.16 1.165-5.031 0-1.871-.389-3.516-1.165-4.935a8.262 8.262 0 00-3.106-3.387c-1.359-.839-2.912-1.258-4.659-1.258-1.747 0-3.3.42-4.659 1.258a8.969 8.969 0 00-3.203 3.387c-.776 1.419-1.165 3.064-1.165 4.935 0 1.87.389 3.548 1.165 5.031a8.969 8.969 0 003.203 3.387c1.359.839 2.912 1.258 4.659 1.258z" fill="#78E08F"/><path d="M51.611 7.492c-.583-.672-1.575-.733-2.217-.122-.175.183-17.508 16.496-28.246 9.103-4.26-2.932-5.31-10.02-5.31-10.081a1.53 1.53 0 00-1.284-1.405c-.642-.061-1.342.305-1.634.916-2.743 6.355-7.587 14.42-8.929 13.503-.117 0-.35-.244-.525-.672-.7-2.016-.467-4.216.525-6.11 2.218-4.766 6.303-8.187 11.205-9.47.525-.122.934-.55 1.109-1.1.175-.55 0-1.16-.35-1.589-.41-.366-.934-.55-1.46-.427C8.66 1.504 3.816 5.658 1.19 11.28c-1.4 2.75-1.576 6.049-.467 8.92.525 1.406 1.81 2.383 3.268 2.383h.058c2.86-.06 6.42-3.788 8.87-7.82a1.371 1.371 0 011.343-.672c.525 0 .992.305 1.226.794.992 1.71 2.334 3.177 3.968 4.216 12.722 8.86 31.222-8.615 32.038-9.349.292-.305.467-.733.467-1.1.059-.427-.116-.855-.35-1.16z" fill="#000"/><path d="M98.042 6.33c-.234-.305-.642-.488-1.05-.488-.409 0-.818.122-1.11.428-8.053 8.004-21.3 9.715-30.812 10.326-.292.06-.467-.428-.292-.734a8.663 8.663 0 001.517-3.543c.467-3.3-1.4-6.477-4.493-7.393-2.743-1.161-5.72.61-8.988 5.132-.233.306-.525.183-.467-.183.234-1.833.467-3.605.7-5.255a1.616 1.616 0 00-.524-1.527 1.385 1.385 0 00-1.576-.245c-.525.184-.875.733-.934 1.283-.642 4.888-1.4 9.96-2.217 14.848-5.311 11.18-11.088 28.41-8.346 31.099.409.428.992.672 1.576.672.292 0 .525 0 .817-.122 3.326-1.222 6.536-16.314 8.929-30.794.058-.122.058-.183.117-.244A36.861 36.861 0 0157.54 9.325c.876-.856 2.16-1.833 3.152-1.405 1.984.855 2.86 2.138 2.568 3.849-.76 2.81-3.094 4.949-5.895 5.376-.35 0-.7.062-1.05.062-.817.122-1.4.855-1.4 1.71.116.856.758 1.467 1.575 1.467.409 0 .817 0 1.226-.061 1.108-.122 2.392-.184 3.851-.245 9.863-.61 26.436-1.527 36.416-11.486.35-.245.466-.672.525-1.1a1.71 1.71 0 00-.467-1.161zM41.843 45.558c.759-3.666 1.692-7.271 2.918-10.754-.7 3.666-1.692 7.21-2.918 10.754z" fill="#000"/><path d="M144.033 6.33c-.233-.305-.642-.488-1.05-.488-.409 0-.817.122-1.109.428-8.054 8.004-21.301 9.715-30.813 10.326-.292.06-.467-.428-.292-.734a8.653 8.653 0 001.517-3.543c.467-3.3-1.4-6.477-4.493-7.393-2.743-1.161-5.719.61-8.987 5.132-.234.306-.526.183-.467-.183.233-1.833.467-3.605.7-5.255a1.616 1.616 0 00-.525-1.527 1.385 1.385 0 00-1.576-.245c-.525.184-.875.733-.934 1.283-.642 4.888-1.4 9.96-2.217 14.848-5.31 11.18-11.088 28.41-8.345 31.099.408.428.992.672 1.575.672.292 0 .526 0 .817-.122 3.327-1.222 6.536-16.314 8.93-30.794.057-.122.057-.183.116-.244a36.858 36.858 0 016.653-10.265c.875-.856 2.159-1.833 3.151-1.405 1.984.855 2.86 2.138 2.568 3.849-.759 2.81-3.093 4.949-5.894 5.376-.351 0-.701.062-1.051.062-.817.122-1.4.855-1.4 1.71.116.856.758 1.467 1.575 1.467.409 0 .817 0 1.226-.061 1.108-.122 2.392-.184 3.851-.245 9.863-.61 26.437-1.527 36.416-11.486.35-.245.467-.672.525-1.1 0-.428-.175-.856-.467-1.161zM87.834 45.558c.759-3.666 1.693-7.271 2.918-10.754-.7 3.666-1.692 7.21-2.918 10.754z" fill="#000"/></svg>
